X:1
T:A l'acqua a l'aria
T:Gemignano Capilupi da Modena
T:Source : Canzonette a tre voci di H.Vecchi et di G.Capilupi da Modena---Venetia---Ang.Gardano---1597. Editor : André Vierendeels (16/02/17).
T:Notes : Original clefs : G2, G2, C4 Editorial accidentals above the staff Lute accompaniment is not added in this edition
T:A l'acqua a l'aria
T:©
T:©
C:Gemignano Capilupi da Modena
Z:©
%%score [ 1 2 3 ]
L:1/8
Q:1/4=100
M:4/4
K:C
V:1 treble nm="Soprano 1" snm="S 1"
V:2 treble nm="Soprano 2" snm="S 2"
V:3 treble-8 nm="Tenor" snm="T"
V:1
"^1)" z2 d2 d2 d2 | d2 d2 d3 e | f2 ed c2 d2 | e4 e4 | g2 gg g2 a2 | f2 e2 d4- | d4 e4 | %7
w: L'ac- qu'a l'a-|ri'a le tem- *|pe- * * * ste'à|ven- ti,|mi- se- ro spar- go|gl'as- pri miei|_ la-|
w: Al fo- co,|al fu- mo, al|So- * * le'a la|Lu- na,|dol- go- mi si de|l'as- pra mia|_ for-|
 ^c2 d4 c2 | d8 :: z2 c2 c2 c2 | c2 d2 B4 | B2 g2 f2 d2 | e4 e2 a2 | f2 e2 d4 | d4 z dde | %15
w: men- * *|ti,|per- che quel-|la cru- de-|le Pie- na di|fe- le, da|me s'as- con-|de, e van- n'e|
w: tu- * *|na,|ma che pro|se non m'o-|de? An- zi si|go- de, l'em-|pia mia fie-|ra, ch'ar- den- do|
 f4 z ccd | e2 f2 e4 | d8 :| %18
w: vien co- m'a la|ri- va l'on-|de.|
w: vi va'e la- gri-|man- do pe-|ra.|
V:2
"^2)""^1)" z2 A2 A2 A2 | A4 A4 | z2 G2 A2 B2 | c2 A2 G2 G2 | e2 ee e2 c2 | d6 c2 | _B2 G2 g4- | %7
w: L'ac- qu'a l'a-|ri- a|a le tem-|pe- st'e'à ven- ti,|mi- se- ro spar- go|gl'apri mie-|i la- men-|
w: Ma se que-|ste mie|pe- ne'un- qua|non han- no'al- tro,|per gui- der- don che|do- glia|e af- fan-|
 g2 f2 e4 | d8 :: z2 A2 A2 G2 | A2 A2 G4 | G2 c2 A2 B2 | c4 c2 e2 |"^-natural" d2 c2 B4 | BBBc d4 | %15
w: |ti,|per- che quel-|la cru- de-|le Pie- na di|fe- le, da|me s'as- con-|de, e van- n'e vien|
w: |no,|vor- ro dun-|que mai sem-|pre, fra si rie|tem- pre, gui-|dar quest' ho-|re, tu sol lo sai,|
"^b" z AAB c4- | c2 d4 ^c2 | d8 :| %18
w: co- m'a la ri-|* va l'on-|de.|
w: tu sol lo sco-|* pri'A- mo-|re.|
V:3
"^3)""^1)""^4)""^5)" z2 d2 d2 d2 | d6 D2 | D2 E2 F2 D2 | C4 C4 | c2 cc c2 F2 |"^b" B6 A2 | G4 G4 | %7
w: L'ac- qu'a l'a-|ria, a|le tem- pe- ste'a|ven- ti,|mi- se- ro spar- go|gl'as- pri|miei la-|
w: Al sec- co'al|mol- le'al|ge- lo'e à l'ar-|su- ra,|pian- go mai sem- pre|l'as- pra|mia sven-|
w: Per- ch'ar- so'il|cor, per-|che pia- ga- to'an-|ch'el- la,|non ha de stra- li|tuoi, di|tua fa-|
 A8 | D8 :: z2 f2 f2 e2 | f2 d2 e4 | e2 c2 d2 G2 | c4 c2 A2 | _B2 c2 G4 | GGGA _B4 | z FFG A4- | %16
w: men-|ti,|per- che quel-|la cru- de-|le Pie- na di|fe- le, da|me s'as- con-|de, e van- n'e vien|co- m'a la ri-|
w: tu-|ra.|per- che se|per mer- ce-|de, a la mia|fe- de, per|de i chieg-|go sol cru- del- ta-|de'a la mia fe-|
w: cel-|la?|S'e pur tua|giu- sta leg-|ge, ch'an- ti- ca|reg- ge, tut-|to'il tuo sta-|to, che ri- a- mar|con vie- ne'un co|
 A2 _B2 A4 | D8 :| %18
w: * va l'on-|de.|
w: * de'i veg-|gio.|
w: _ re'a- ma-|ro.|

